airbyte/airbyte-config/init/src/main/resources/icons/streamr.svg

<svg width="56" height="79" viewBox="0 0 56 79" fill="none" xmlns="http://www.w3.org/2000/svg">
<path d="M0 76.7043L1.57496 75.1299C2.25826 75.9317 3.26167 76.39 4.31538 76.3815C5.47559 76.3815 6.03733 75.8567 6.03733 75.0695C6.03733 74.4739 5.77484 74.0356 4.76949 73.894L3.68802 73.7523C1.38596 73.4557 0.33599 72.3274 0.33599 70.4959C0.33599 68.5384 1.87157 67.1765 4.43875 67.1765C6.08458 67.1765 7.32617 67.7249 8.22914 68.7116L6.65419 70.3096C6.07579 69.6093 5.19883 69.2255 4.29175 69.2757C3.22603 69.2757 2.7168 69.6824 2.7168 70.3411C2.7168 71.0915 3.10791 71.3749 4.02926 71.5166L5.11073 71.6898C7.34979 72.0493 8.43126 73.0516 8.43126 74.9304C8.43126 77.0296 6.89568 78.4859 4.17101 78.4859C2.23906 78.4728 0.942348 77.7355 0 76.7043Z" fill="#0C009A"/>
<path d="M12.5945 78.2839C10.996 78.2839 10.1507 77.4547 10.1507 75.8882V71.8656H8.99052V70.0655H9.57063C10.198 70.0655 10.3844 69.7533 10.3844 69.1891V67.843H12.4686V70.0655H14.0986V71.8656H12.4686V76.4838H13.9726V78.2839H12.5945Z" fill="#0C009A"/>
<path d="M15.1644 78.2839V70.0629H17.4796V71.8472H17.5583C17.7473 70.9393 18.372 70.0629 19.6582 70.0629H20.0651V72.2224H19.485C18.1384 72.2224 17.4796 72.5189 17.4796 73.4741V78.2812L15.1644 78.2839Z" fill="#0C009A"/>
<path d="M20.506 74.1668C20.506 71.5664 21.8841 69.8766 24.3594 69.8766C27.0841 69.8766 28.1813 71.8498 28.1813 74.075V74.7651H22.9026V74.891C22.9026 75.9721 23.4827 76.6596 24.719 76.6596C25.6902 76.6596 26.2231 76.2057 26.7402 75.673L27.9004 77.1136C27.1654 77.9585 25.958 78.4754 24.4539 78.4754C21.9418 78.4728 20.506 76.7961 20.506 74.1668ZM22.9026 73.2747V73.4006H25.79V73.2484C25.79 72.2461 25.3359 71.5717 24.4119 71.5717C23.4879 71.5717 22.9026 72.2566 22.9026 73.2747Z" fill="#0C009A"/>
<path d="M35.5129 78.2839C34.6834 78.2839 34.0875 77.7198 33.9379 76.8434H33.8434C33.5809 77.9087 32.6832 78.4729 31.4311 78.4729C29.7853 78.4729 28.8771 77.502 28.8771 76.0772C28.8771 74.3401 30.2236 73.5083 32.4023 73.5083H33.7148V72.9835C33.7148 72.1963 33.3237 71.6715 32.3525 71.6715C31.6323 71.6587 30.9591 72.0281 30.5833 72.6423L29.2052 71.4222C29.864 70.4513 30.8038 69.8478 32.5257 69.8478C34.8435 69.8478 36.0352 70.9131 36.0352 72.8549V76.4576H36.8017V78.2577L35.5129 78.2839ZM33.7122 75.7938V74.8229H32.5835C31.691 74.8229 31.2211 75.1509 31.2211 75.7465V75.9827C31.2211 76.5783 31.6122 76.8591 32.3026 76.8591C33.0691 76.8591 33.7095 76.5468 33.7095 75.7964L33.7122 75.7938Z" fill="#0C009A"/>
<path d="M37.7989 78.2839V70.0629H40.1167V71.4562H40.2112C40.4958 70.4853 41.4078 69.835 42.4188 69.8818C43.4799 69.8305 44.4354 70.5199 44.7208 71.5428H44.7786C45.0752 70.6192 46.0307 69.8818 47.2854 69.8818C48.8604 69.8818 49.745 71.0731 49.745 73.1382V78.2891H47.4035V73.3219C47.4035 72.2566 47.0439 71.7475 46.2748 71.7475C45.5845 71.7475 44.9125 72.1385 44.9125 72.9519V78.276H42.5947V73.3219C42.5947 72.2566 42.2193 71.7475 41.4659 71.7475C40.7913 71.7475 40.1036 72.1385 40.1036 72.9519V78.276L37.7989 78.2839Z" fill="#0C009A"/>
<path d="M51.0967 78.2839V70.0629H53.4145V71.8472H53.4933C53.6822 70.9393 54.307 70.0629 55.5932 70.0629H56.0001V72.2224H55.4199C54.0734 72.2224 53.4145 72.5189 53.4145 73.4741V78.2812L51.0967 78.2839Z" fill="#0C009A"/>
<path d="M35.0047 1.4C35.0047 1.4 35.0049 1.26403 35.0051 0.993673C35.0054 0.723317 34.8953 0.464565 34.7003 0.277179C34.5053 0.0897938 34.2423 -0.0100187 33.972 0.000795574C23.108 0.537804 14.4471 9.26736 14.0013 20.1297C14.0001 20.3653 14.0959 20.591 14.2663 20.7537C14.4367 20.9165 14.6666 21.002 14.902 20.9902H16.5577C17.0688 20.9948 17.4945 20.5998 17.5279 20.09C17.997 11.1376 25.1539 3.98441 34.1111 3.51558C34.7932 3.42953 35.0047 3.05555 35.0047 2.60213C35.0047 2.14872 35.0047 1.4 35.0047 1.4ZM20.7667 21.007C21.1765 21.007 21.3129 21.0053 21.8161 21.0068C22.3192 21.0082 22.7382 20.6212 22.7764 20.1198C23.2113 14.0186 28.084 9.17399 34.1906 8.77121C34.6703 8.73759 35.0336 8.32432 35.0051 7.84452V6.24599C34.9992 5.97788 34.885 5.72356 34.6886 5.54091C34.4921 5.35826 34.2301 5.26281 33.9621 5.27628C26.0735 5.79808 19.7902 12.0766 19.2663 19.9609C19.2529 20.2288 19.3484 20.4907 19.5311 20.687C19.7138 20.8834 19.9683 21.0011 20.2366 21.007C20.5048 21.0129 20.5596 21.007 20.7667 21.007ZM35.0052 11.5182V13.1233C35.0007 13.6032 34.6353 14.0027 34.1574 14.05C30.9682 14.4403 28.4523 16.9468 28.0513 20.133C27.9905 20.6231 27.5785 20.994 27.0844 21.0035H25.697C24.942 21.0035 24.4883 20.5136 24.5446 19.9477C25.048 14.9787 28.9803 11.0499 33.9521 10.5485C34.2235 10.5252 34.4921 10.6171 34.6924 10.8015C34.8926 10.9859 35.0061 11.246 35.0052 11.5182ZM53.4096 34.9666C52.9559 34.9666 52.5818 34.7482 52.4957 34.0664C52.0324 25.1028 44.8643 17.94 35.8959 17.4787C35.3859 17.4454 34.9906 17.0199 34.9952 16.509V14.8542C34.9834 14.619 35.0689 14.3892 35.2318 14.2189C35.3947 14.0486 35.6205 13.9528 35.8562 13.954C46.7256 14.3979 55.4616 23.0547 55.9991 33.9142C56.0107 34.1814 55.9139 34.4421 55.7307 34.6371C55.5474 34.8321 55.2932 34.945 55.0255 34.9501L53.4096 34.9666ZM35.0051 20.2092C35.011 19.9404 35.1257 19.6856 35.3229 19.5028C35.5201 19.3201 35.783 19.225 36.0515 19.2394C43.9377 19.7626 50.2187 26.0389 50.744 33.9208C50.7584 34.1892 50.6633 34.452 50.4804 34.6491C50.2976 34.8461 50.0426 34.9607 49.7737 34.9666H48.1744C47.6907 34.9949 47.2756 34.6259 47.2472 34.1425C46.8412 28.0429 41.9966 23.1769 35.8959 22.741C35.3942 22.7028 35.007 22.2841 35.0085 21.7812L35.0051 20.2092ZM44.1 34.9673C44.1 34.9673 43.3663 34.9718 42.8861 34.9673C42.406 34.9629 42.0063 34.5936 41.959 34.1161C41.5681 30.9274 39.0586 28.4125 35.8694 28.0132C35.379 27.9523 35.0079 27.5405 34.9985 27.0468V25.4846C34.9975 25.2118 35.1114 24.9512 35.3124 24.7666C35.5135 24.5821 35.783 24.4907 36.0548 24.5149C41.0267 25.0163 44.959 28.9452 45.4624 33.9142C45.4856 34.1854 45.3937 34.4538 45.2092 34.654C45.0247 34.8542 44.7645 34.9676 44.4921 34.9666L44.1 34.9673ZM2.58048 21.0001C3.03413 21.0001 3.40831 21.2186 3.49441 21.9004C3.95814 30.8675 11.1318 38.0317 20.1041 38.488C20.6141 38.5214 21.0094 38.9469 21.0048 39.4577V41.1125C21.0166 41.3478 20.9311 41.5776 20.7682 41.7479C20.6053 41.9181 20.3795 42.0139 20.1438 42.0127C9.27444 41.5688 0.538365 32.912 0.000942009 22.0526C-0.0107061 21.7853 0.0860639 21.5246 0.269329 21.3296C0.452594 21.1346 0.706843 21.0218 0.974477 21.0167L2.58048 21.0001ZM20.9949 35.7444C20.989 36.0131 20.8743 36.2679 20.6771 36.4507C20.4799 36.6334 20.217 36.7285 19.9485 36.7141C12.0671 36.1899 5.78918 29.9195 5.25935 22.0427C5.24495 21.7743 5.34003 21.5115 5.52288 21.3144C5.70573 21.1173 5.96072 21.0027 6.22958 20.9968H7.82896C8.31265 20.9686 8.7277 21.3375 8.75613 21.8209C9.16031 27.9206 14.0035 32.7881 20.1041 33.2258C20.6058 33.2639 20.993 33.6827 20.9915 34.1856L20.9949 35.7444ZM11.4946 21.0001H13.1006C13.5808 21.0046 13.9805 21.3698 14.0278 21.8474C14.4187 25.036 16.9281 27.551 20.1173 27.9503C20.6077 28.0111 20.9788 28.4229 20.9882 28.9167V30.4821C20.9864 30.7519 20.8721 31.0088 20.6729 31.1909C20.4737 31.3731 20.2076 31.464 19.9385 31.4419C14.9667 30.9405 11.0344 27.0117 10.531 22.0427C10.5108 21.7743 10.6031 21.5095 10.7858 21.3118C10.9686 21.1141 11.2253 21.0012 11.4946 21.0001ZM20.9915 53.411C20.9915 52.9575 21.2101 52.5836 21.8922 52.4975C30.8607 52.0363 38.0287 44.8734 38.492 35.9098C38.5253 35.4001 38.9511 35.005 39.4622 35.0096H41.1179C41.3533 34.9978 41.5832 35.0833 41.7536 35.2461C41.9239 35.4089 42.0198 35.6346 42.0186 35.8701C41.5727 46.7337 32.9098 55.4637 22.0446 55.9991C21.7771 56.0107 21.5163 55.914 21.3212 55.7308C21.1261 55.5476 21.0132 55.2935 21.0081 55.026L20.9915 53.411ZM35.7568 35.0063C36.0257 35.0122 36.2807 35.1268 36.4635 35.3239C36.6464 35.521 36.7415 35.7838 36.727 36.0522C36.2018 43.934 29.9208 50.2103 22.0346 50.7335C21.7661 50.7479 21.5032 50.6529 21.306 50.4701C21.1088 50.2874 20.9941 50.0325 20.9882 49.7638V48.1653C20.96 47.6818 21.3291 47.267 21.8128 47.2386C27.9157 46.8346 32.7857 41.994 33.2236 35.8966C33.2618 35.3952 33.6808 35.0082 34.1839 35.0096L35.7568 35.0063ZM20.9982 44.4916V42.8865C21.0026 42.4066 21.368 42.0071 21.8459 41.9598C25.0351 41.5694 27.551 39.063 27.952 35.8768C28.0128 35.3866 28.4249 35.0157 28.9189 35.0063H30.3064C31.0613 35.0063 31.515 35.4961 31.4587 36.0621C30.9553 41.0311 27.023 44.9599 22.0512 45.4613C21.7798 45.4846 21.5112 45.3927 21.311 45.2083C21.1107 45.0239 20.9972 44.7638 20.9982 44.4916ZM20.9982 53.411C20.9982 52.9575 21.2167 52.5836 21.8989 52.4975C30.8673 52.0363 38.0353 44.8734 38.4986 35.9098C38.532 35.4001 38.9577 35.005 39.4688 35.0096H41.1245C41.3599 34.9978 41.5898 35.0833 41.7602 35.2461C41.9306 35.4089 42.0264 35.6346 42.0252 35.8701C41.5793 46.7337 32.9164 55.4637 22.0512 55.9991C21.7837 56.0107 21.5229 55.914 21.3278 55.7308C21.1327 55.5476 21.0198 55.2935 21.0147 55.026L20.9982 53.411ZM35.7634 35.0063C36.0323 35.0122 36.2873 35.1268 36.4701 35.3239C36.653 35.521 36.7481 35.7838 36.7337 36.0522C36.2084 43.934 29.9274 50.2103 22.0412 50.7335C21.7727 50.7479 21.5098 50.6529 21.3126 50.4701C21.1154 50.2874 21.0007 50.0325 20.9949 49.7638V48.1653C20.9666 47.6818 21.3357 47.267 21.8194 47.2386C27.9223 46.8346 32.7924 41.994 33.2303 35.8966C33.2684 35.3952 33.6874 35.0082 34.1906 35.0096L35.7634 35.0063ZM20.9982 44.4916V42.8865C21.0026 42.4066 21.368 42.0071 21.8459 41.9598C25.0351 41.5694 27.551 39.063 27.952 35.8768C28.0128 35.3866 28.4249 35.0157 28.9189 35.0063H30.3064C31.0613 35.0063 31.515 35.4961 31.4587 36.0621C30.9553 41.0311 27.023 44.9599 22.0512 45.4613C21.7798 45.4846 21.5112 45.3927 21.311 45.2083C21.1107 45.0239 20.9972 44.7638 20.9982 44.4916Z" fill="#FF5C00"/>
</svg>

<svg xmlns="http://www.w3.org/2000/svg" width="56" height="79" fill="none"><path fill="#0C009A" d="m0 76.704 1.575-1.574a3.563 3.563 0 0 0 2.74 1.252c1.16 0 1.722-.525 1.722-1.313 0-.595-.262-1.033-1.268-1.175l-1.081-.142C1.386 73.456.336 72.327.336 70.496c0-1.958 1.536-3.32 4.103-3.32 1.646 0 2.887.549 3.79 1.536L6.654 70.31a2.86 2.86 0 0 0-2.362-1.034c-1.066 0-1.575.406-1.575 1.065 0 .75.39 1.034 1.312 1.176l1.082.173c2.239.36 3.32 1.362 3.32 3.24 0 2.1-1.535 3.556-4.26 3.556-1.932-.013-3.229-.75-4.171-1.782ZM12.595 78.284c-1.599 0-2.444-.83-2.444-2.396v-4.022H8.99v-1.8h.58c.627 0 .813-.313.813-.877v-1.346h2.085v2.222h1.63v1.8h-1.63v4.619h1.504v1.8h-1.379ZM15.164 78.284v-8.221h2.316v1.784h.078c.19-.908.814-1.784 2.1-1.784h.407v2.16h-.58c-1.347 0-2.005.296-2.005 1.251v4.807l-2.316.003ZM20.506 74.167c0-2.6 1.378-4.29 3.853-4.29 2.725 0 3.822 1.973 3.822 4.198v.69h-5.278v.126c0 1.081.58 1.769 1.816 1.769.971 0 1.504-.454 2.021-.987l1.16 1.44c-.735.846-1.942 1.362-3.446 1.362-2.512-.002-3.948-1.679-3.948-4.308Zm2.397-.892v.126h2.887v-.153c0-1.002-.454-1.676-1.378-1.676-.924 0-1.51.685-1.51 1.703ZM35.513 78.284c-.83 0-1.425-.564-1.575-1.44h-.095c-.262 1.065-1.16 1.629-2.412 1.629-1.646 0-2.554-.971-2.554-2.396 0-1.737 1.347-2.569 3.525-2.569h1.313v-.524c0-.788-.391-1.313-1.363-1.313a2.032 2.032 0 0 0-1.769.971l-1.378-1.22c.659-.97 1.599-1.574 3.32-1.574 2.319 0 3.51 1.065 3.51 3.007v3.603h.767v1.8l-1.29.026Zm-1.8-2.49v-.971h-1.13c-.892 0-1.362.328-1.362.924v.236c0 .595.391.876 1.082.876.766 0 1.407-.312 1.407-1.063l.002-.002ZM37.799 78.284v-8.221h2.318v1.393h.094a2.194 2.194 0 0 1 2.208-1.574 2.276 2.276 0 0 1 2.302 1.66h.058c.296-.923 1.252-1.66 2.506-1.66 1.575 0 2.46 1.191 2.46 3.256v5.151h-2.341v-4.967c0-1.065-.36-1.575-1.13-1.575-.69 0-1.361.391-1.361 1.205v5.324h-2.318v-4.954c0-1.065-.376-1.575-1.13-1.575-.674 0-1.361.391-1.361 1.205v5.324l-2.305.008ZM51.097 78.284v-8.221h2.317v1.784h.08c.188-.908.813-1.784 2.1-1.784H56v2.16h-.58c-1.347 0-2.006.296-2.006 1.251v4.807l-2.317.003Z"/><path fill="#FF5C00" d="M35.005 1.4V.994A.992.992 0 0 0 33.972 0C23.108.538 14.447 9.267 14.002 20.13a.857.857 0 0 0 .9.86h1.656a.963.963 0 0 0 .97-.9c.469-8.952 7.626-16.106 16.583-16.574.682-.086.894-.46.894-.914V1.4ZM20.767 21.007c.41 0 .546-.002 1.05 0a.96.96 0 0 0 .96-.887A12.249 12.249 0 0 1 34.19 8.77a.877.877 0 0 0 .814-.926V6.246a.993.993 0 0 0-1.043-.97c-7.889.522-14.172 6.8-14.696 14.685a.997.997 0 0 0 .97 1.046c.269.006.324 0 .53 0Zm14.238-9.489v1.605a.94.94 0 0 1-.848.927 7.012 7.012 0 0 0-6.106 6.083.993.993 0 0 1-.967.87h-1.387c-.755 0-1.209-.49-1.152-1.055a10.514 10.514 0 0 1 9.407-9.4.97.97 0 0 1 1.053.97ZM53.41 34.967c-.454 0-.828-.219-.914-.9-.464-8.964-7.632-16.127-16.6-16.588a.963.963 0 0 1-.9-.97v-1.655a.857.857 0 0 1 .86-.9c10.87.444 19.606 9.1 20.143 19.96a.993.993 0 0 1-.974 1.036l-1.615.017ZM35.005 20.209a.993.993 0 0 1 1.046-.97c7.887.524 14.168 6.8 14.693 14.682a.993.993 0 0 1-.97 1.046h-1.6a.877.877 0 0 1-.927-.825 12.249 12.249 0 0 0-11.351-11.401.96.96 0 0 1-.888-.96l-.003-1.572ZM44.1 34.967s-.734.005-1.214 0a.944.944 0 0 1-.927-.85 7.012 7.012 0 0 0-6.09-6.104.993.993 0 0 1-.87-.966v-1.562a.97.97 0 0 1 1.056-.97 10.514 10.514 0 0 1 9.407 9.4.97.97 0 0 1-.97 1.052H44.1ZM2.58 21c.454 0 .828.219.914.9.464 8.968 7.638 16.132 16.61 16.588.51.033.905.459.9.97v1.654a.857.857 0 0 1-.86.9C9.274 41.57.538 32.913 0 22.053a.993.993 0 0 1 .973-1.035L2.58 21Zm18.415 14.744a.993.993 0 0 1-1.047.97C12.069 36.19 5.79 29.92 5.26 22.043a.993.993 0 0 1 .97-1.046h1.6a.877.877 0 0 1 .927.824 12.249 12.249 0 0 0 11.348 11.405.96.96 0 0 1 .887.96l.004 1.558ZM11.495 21H13.1c.48.005.88.37.927.847a7.012 7.012 0 0 0 6.09 6.103c.49.061.86.473.87.967v1.565a.97.97 0 0 1-1.05.96 10.514 10.514 0 0 1-9.407-9.4.97.97 0 0 1 .964-1.042Zm9.496 32.411c0-.453.22-.827.901-.913 8.969-.462 16.137-7.625 16.6-16.588a.963.963 0 0 1 .97-.9h1.656a.858.858 0 0 1 .9.86C41.574 46.734 32.91 55.464 22.046 56a.994.994 0 0 1-1.037-.974l-.017-1.615Zm14.766-18.405a.994.994 0 0 1 .97 1.046c-.525 7.882-6.806 14.158-14.692 14.681a.993.993 0 0 1-1.047-.97v-1.598a.877.877 0 0 1 .825-.926 12.249 12.249 0 0 0 11.41-11.342.96.96 0 0 1 .96-.887l1.574-.004Zm-14.759 9.486v-1.605a.94.94 0 0 1 .848-.927 7.012 7.012 0 0 0 6.106-6.083.993.993 0 0 1 .967-.87h1.387c.755 0 1.209.49 1.153 1.055a10.514 10.514 0 0 1-9.408 9.4.97.97 0 0 1-1.053-.97Zm0 8.919c0-.453.219-.827.9-.913 8.97-.462 16.137-7.625 16.6-16.588a.963.963 0 0 1 .97-.9h1.656a.858.858 0 0 1 .901.86C41.58 46.734 32.916 55.464 22.051 56a.994.994 0 0 1-1.036-.974l-.017-1.615Zm14.765-18.405a.994.994 0 0 1 .97 1.046c-.525 7.882-6.806 14.158-14.692 14.681a.993.993 0 0 1-1.046-.97v-1.598a.877.877 0 0 1 .824-.926A12.249 12.249 0 0 0 33.23 35.897a.96.96 0 0 1 .96-.887l1.573-.004Zm-14.765 9.486v-1.605a.94.94 0 0 1 .848-.927 7.012 7.012 0 0 0 6.106-6.083.993.993 0 0 1 .967-.87h1.387c.755 0 1.209.49 1.153 1.055a10.514 10.514 0 0 1-9.408 9.4.97.97 0 0 1-1.053-.97Z"/></svg>
